src/assets/hearts_4.svg

<?xml version="1.0" encoding="UTF-8"?>
<svg xmlns="http://www.w3.org/2000/svg" xmlns:xlink="http://www.w3.org/1999/xlink" width="99px" height="140px" viewBox="0 0 99 140" version="1.1">
<g id="surface1">
<path style="fill-rule:nonzero;fill:rgb(100%,100%,100%);fill-opacity:1;stroke-width:0.755906;stroke-linecap:butt;stroke-linejoin:miter;stroke:rgb(50.196078%,50.196078%,50.196078%);stroke-opacity:1;stroke-miterlimit:4;" d="M 9.297585 719.743103 L 224.702415 719.743103 C 229.632812 719.743103 233.621449 723.747651 233.621449 728.681329 L 233.621449 1043.042991 C 233.621449 1047.976669 229.632812 1051.981217 224.702415 1051.981217 L 9.297585 1051.981217 C 4.367188 1051.981217 0.378551 1047.976669 0.378551 1043.042991 L 0.378551 728.681329 C 0.378551 723.747651 4.367188 719.743103 9.297585 719.743103 Z M 9.297585 719.743103 " transform="matrix(0.423077,0,0,0.42042,0,-302.434542)"/>
<path style=" stroke:none;fill-rule:nonzero;fill:rgb(100%,0%,0%);fill-opacity:1;" d="M 7.273438 25.789062 C 6.902344 24.992188 6.417969 24.246094 5.84375 23.578125 C 5.472656 23.148438 5.066406 22.753906 4.65625 22.367188 C 4.332031 22.0625 4.003906 21.761719 3.742188 21.40625 C 3.5625 21.164062 3.414062 20.894531 3.34375 20.605469 C 3.214844 20.074219 3.355469 19.507812 3.617188 19.03125 C 3.773438 18.753906 3.96875 18.5 4.210938 18.296875 C 4.574219 17.992188 5.042969 17.8125 5.511719 17.851562 C 5.9375 17.886719 6.339844 18.105469 6.652344 18.402344 C 6.925781 18.667969 7.140625 18.996094 7.277344 19.355469 C 7.417969 18.996094 7.632812 18.667969 7.90625 18.402344 C 8.21875 18.105469 8.621094 17.886719 9.046875 17.851562 C 9.515625 17.8125 9.984375 17.992188 10.347656 18.296875 C 10.589844 18.5 10.785156 18.753906 10.941406 19.03125 C 11.203125 19.507812 11.34375 20.074219 11.214844 20.605469 C 11.144531 20.894531 10.996094 21.164062 10.816406 21.40625 C 10.554688 21.761719 10.226562 22.0625 9.902344 22.367188 C 9.492188 22.753906 9.085938 23.148438 8.714844 23.578125 C 8.140625 24.246094 7.65625 24.992188 7.285156 25.789062 "/>
<path style=" stroke:none;fill-rule:nonzero;fill:rgb(100%,0%,0%);fill-opacity:1;" d="M 91.714844 114.210938 C 91.34375 115.007812 90.859375 115.753906 90.285156 116.421875 C 89.914062 116.851562 89.507812 117.246094 89.097656 117.632812 C 88.773438 117.9375 88.445312 118.238281 88.183594 118.59375 C 88.003906 118.835938 87.855469 119.105469 87.785156 119.394531 C 87.65625 119.925781 87.796875 120.492188 88.058594 120.96875 C 88.214844 121.246094 88.410156 121.5 88.652344 121.703125 C 89.015625 122.007812 89.484375 122.1875 89.953125 122.148438 C 90.378906 122.113281 90.78125 121.894531 91.09375 121.597656 C 91.367188 121.332031 91.582031 121.003906 91.722656 120.644531 C 91.859375 121.003906 92.074219 121.332031 92.347656 121.597656 C 92.660156 121.894531 93.0625 122.113281 93.488281 122.148438 C 93.957031 122.1875 94.425781 122.007812 94.789062 121.703125 C 95.03125 121.5 95.226562 121.246094 95.382812 120.96875 C 95.644531 120.492188 95.785156 119.925781 95.65625 119.394531 C 95.585938 119.105469 95.4375 118.835938 95.257812 118.59375 C 94.996094 118.238281 94.667969 117.9375 94.34375 117.632812 C 93.933594 117.246094 93.527344 116.851562 93.15625 116.421875 C 92.582031 115.753906 92.097656 115.007812 91.726562 114.210938 "/>
<path style=" stroke:none;fill-rule:nonzero;fill:rgb(100%,0%,0%);fill-opacity:1;" d="M 24.792969 39.820312 C 23.667969 37.425781 22.21875 35.1875 20.496094 33.191406 C 19.386719 31.902344 18.167969 30.714844 16.929688 29.550781 C 15.964844 28.640625 14.980469 27.738281 14.191406 26.667969 C 13.65625 25.945312 13.210938 25.140625 13 24.265625 C 12.617188 22.679688 13.035156 20.976562 13.824219 19.550781 C 14.285156 18.71875 14.875 17.949219 15.605469 17.339844 C 16.6875 16.433594 18.097656 15.890625 19.5 16.007812 C 20.78125 16.117188 21.984375 16.769531 22.917969 17.664062 C 23.75 18.457031 24.394531 19.445312 24.804688 20.523438 C 25.214844 19.445312 25.859375 18.457031 26.691406 17.664062 C 27.628906 16.769531 28.828125 16.117188 30.113281 16.007812 C 31.511719 15.890625 32.921875 16.433594 34.003906 17.339844 C 34.734375 17.949219 35.324219 18.71875 35.785156 19.550781 C 36.574219 20.976562 36.992188 22.679688 36.609375 24.265625 C 36.398438 25.140625 35.953125 25.945312 35.417969 26.667969 C 34.628906 27.738281 33.644531 28.640625 32.679688 29.550781 C 31.441406 30.714844 30.222656 31.902344 29.113281 33.191406 C 27.390625 35.1875 25.941406 37.425781 24.820312 39.820312 "/>
<path style=" stroke:none;fill-rule:nonzero;fill:rgb(100%,0%,0%);fill-opacity:1;" d="M 74.179688 39.820312 C 73.058594 37.425781 71.609375 35.1875 69.886719 33.191406 C 68.777344 31.902344 67.558594 30.714844 66.320312 29.550781 C 65.355469 28.640625 64.371094 27.738281 63.582031 26.667969 C 63.046875 25.945312 62.601562 25.140625 62.390625 24.265625 C 62.007812 22.679688 62.425781 20.976562 63.214844 19.550781 C 63.675781 18.71875 64.265625 17.949219 64.996094 17.339844 C 66.078125 16.433594 67.488281 15.890625 68.886719 16.007812 C 70.171875 16.117188 71.371094 16.769531 72.308594 17.664062 C 73.140625 18.457031 73.785156 19.445312 74.195312 20.523438 C 74.605469 19.445312 75.25 18.457031 76.082031 17.664062 C 77.015625 16.769531 78.21875 16.117188 79.5 16.007812 C 80.902344 15.890625 82.3125 16.433594 83.394531 17.339844 C 84.125 17.949219 84.714844 18.71875 85.175781 19.550781 C 85.964844 20.976562 86.382812 22.679688 86 24.265625 C 85.789062 25.140625 85.34375 25.945312 84.808594 26.667969 C 84.019531 27.738281 83.035156 28.640625 82.070312 29.550781 C 80.832031 30.714844 79.613281 31.902344 78.503906 33.191406 C 76.78125 35.1875 75.332031 37.425781 74.207031 39.820312 "/>
<path style=" stroke:none;fill-rule:nonzero;fill:rgb(100%,0%,0%);fill-opacity:1;" d="M 24.792969 100.179688 C 23.667969 102.574219 22.21875 104.8125 20.496094 106.808594 C 19.386719 108.097656 18.167969 109.285156 16.929688 110.449219 C 15.964844 111.359375 14.980469 112.261719 14.191406 113.332031 C 13.65625 114.054688 13.210938 114.859375 13 115.734375 C 12.617188 117.320312 13.035156 119.023438 13.824219 120.449219 C 14.285156 121.28125 14.875 122.050781 15.605469 122.660156 C 16.6875 123.566406 18.097656 124.109375 19.5 123.992188 C 20.78125 123.882812 21.984375 123.230469 22.917969 122.335938 C 23.75 121.542969 24.394531 120.554688 24.804688 119.476562 C 25.214844 120.554688 25.859375 121.542969 26.691406 122.335938 C 27.628906 123.230469 28.828125 123.882812 30.113281 123.992188 C 31.511719 124.109375 32.921875 123.566406 34.003906 122.660156 C 34.734375 122.050781 35.324219 121.28125 35.785156 120.449219 C 36.574219 119.023438 36.992188 117.320312 36.609375 115.734375 C 36.398438 114.859375 35.953125 114.054688 35.417969 113.332031 C 34.628906 112.261719 33.644531 111.359375 32.679688 110.449219 C 31.441406 109.285156 30.222656 108.097656 29.113281 106.808594 C 27.390625 104.8125 25.941406 102.574219 24.820312 100.179688 "/>
<path style=" stroke:none;fill-rule:nonzero;fill:rgb(100%,0%,0%);fill-opacity:1;" d="M 74.179688 100.179688 C 73.058594 102.574219 71.609375 104.8125 69.886719 106.808594 C 68.777344 108.097656 67.558594 109.285156 66.320312 110.449219 C 65.355469 111.359375 64.371094 112.261719 63.582031 113.332031 C 63.046875 114.054688 62.601562 114.859375 62.390625 115.734375 C 62.007812 117.320312 62.425781 119.023438 63.214844 120.449219 C 63.675781 121.28125 64.265625 122.050781 64.996094 122.660156 C 66.078125 123.566406 67.488281 124.109375 68.886719 123.992188 C 70.171875 123.882812 71.371094 123.230469 72.308594 122.335938 C 73.140625 121.542969 73.785156 120.554688 74.195312 119.476562 C 74.605469 120.554688 75.25 121.542969 76.082031 122.335938 C 77.015625 123.230469 78.21875 123.882812 79.5 123.992188 C 80.902344 124.109375 82.3125 123.566406 83.394531 122.660156 C 84.125 122.050781 84.714844 121.28125 85.175781 120.449219 C 85.964844 119.023438 86.382812 117.320312 86 115.734375 C 85.789062 114.859375 85.34375 114.054688 84.808594 113.332031 C 84.019531 112.261719 83.035156 111.359375 82.070312 110.449219 C 80.832031 109.285156 79.613281 108.097656 78.503906 106.808594 C 76.78125 104.8125 75.332031 102.574219 74.207031 100.179688 "/>
<path style=" stroke:none;fill-rule:nonzero;fill:rgb(100%,0%,0%);fill-opacity:1;" d="M 11.261719 14.777344 C 11.261719 14.894531 11.242188 15.007812 11.203125 15.117188 C 11.117188 15.171875 11.023438 15.199219 10.925781 15.199219 L 6.242188 15.199219 C 5.882812 15.199219 5.703125 14.992188 5.703125 14.578125 C 5.703125 14.511719 5.707031 14.398438 5.71875 14.230469 C 5.726562 14.066406 5.734375 13.941406 5.734375 13.851562 C 5.734375 13.660156 5.769531 13.535156 5.84375 13.480469 C 5.894531 13.441406 6.015625 13.421875 6.199219 13.421875 L 8.023438 13.421875 L 8.023438 12.152344 L 3.929688 12.152344 C 3.507812 12.152344 3.296875 11.925781 3.296875 11.480469 C 3.296875 11.402344 3.304688 11.265625 3.316406 11.058594 C 3.332031 10.851562 3.339844 10.683594 3.339844 10.5625 C 3.339844 10.378906 3.433594 10.144531 3.625 9.863281 L 7.839844 3.582031 C 7.972656 3.386719 8.136719 3.285156 8.335938 3.285156 L 9.300781 3.285156 C 9.527344 3.285156 9.644531 3.429688 9.644531 3.714844 L 9.644531 10.457031 C 9.816406 10.457031 10.015625 10.453125 10.242188 10.441406 C 10.46875 10.429688 10.617188 10.421875 10.679688 10.421875 C 10.941406 10.421875 11.105469 10.5 11.167969 10.648438 C 11.230469 10.789062 11.261719 11.148438 11.261719 11.722656 C 11.261719 11.824219 11.253906 11.90625 11.242188 11.960938 C 11.210938 12.085938 11.097656 12.152344 10.90625 12.152344 L 9.644531 12.152344 L 9.644531 13.421875 C 9.824219 13.421875 10.027344 13.417969 10.253906 13.40625 C 10.484375 13.394531 10.628906 13.390625 10.6875 13.390625 C 10.964844 13.390625 11.132812 13.46875 11.1875 13.628906 C 11.238281 13.761719 11.261719 14.144531 11.261719 14.777344 Z M 8.050781 5.9375 C 7.785156 6.398438 6.796875 7.90625 5.089844 10.457031 L 8.023438 10.457031 C 8.023438 10.164062 8.019531 9.664062 8.007812 8.953125 C 7.996094 8.308594 7.988281 7.804688 7.996094 7.441406 C 8 6.890625 8.019531 6.390625 8.050781 5.9375 Z M 8.050781 5.9375 "/>
<path style=" stroke:none;fill-rule:nonzero;fill:rgb(100%,0%,0%);fill-opacity:1;" d="M 87.738281 125.222656 C 87.738281 125.105469 87.757812 124.992188 87.796875 124.882812 C 87.882812 124.828125 87.976562 124.800781 88.074219 124.800781 L 92.757812 124.800781 C 93.117188 124.800781 93.296875 125.007812 93.296875 125.421875 C 93.296875 125.488281 93.292969 125.601562 93.28125 125.769531 C 93.273438 125.933594 93.265625 126.058594 93.265625 126.148438 C 93.265625 126.339844 93.230469 126.464844 93.15625 126.519531 C 93.105469 126.558594 92.984375 126.578125 92.800781 126.578125 L 90.976562 126.578125 L 90.976562 127.847656 L 95.070312 127.847656 C 95.492188 127.847656 95.703125 128.074219 95.703125 128.519531 C 95.703125 128.597656 95.695312 128.734375 95.683594 128.941406 C 95.667969 129.148438 95.660156 129.316406 95.660156 129.4375 C 95.660156 129.621094 95.566406 129.855469 95.375 130.136719 L 91.160156 136.417969 C 91.027344 136.613281 90.863281 136.714844 90.664062 136.714844 L 89.699219 136.714844 C 89.472656 136.714844 89.355469 136.570312 89.355469 136.285156 L 89.355469 129.542969 C 89.183594 129.542969 88.984375 129.546875 88.757812 129.558594 C 88.53125 129.570312 88.382812 129.578125 88.320312 129.578125 C 88.058594 129.578125 87.894531 129.5 87.832031 129.351562 C 87.769531 129.210938 87.738281 128.851562 87.738281 128.277344 C 87.738281 128.175781 87.746094 128.09375 87.757812 128.039062 C 87.789062 127.914062 87.902344 127.847656 88.09375 127.847656 L 89.355469 127.847656 L 89.355469 126.578125 C 89.175781 126.578125 88.972656 126.582031 88.746094 126.59375 C 88.515625 126.605469 88.371094 126.609375 88.3125 126.609375 C 88.035156 126.609375 87.867188 126.53125 87.8125 126.371094 C 87.761719 126.238281 87.738281 125.855469 87.738281 125.222656 Z M 90.949219 134.0625 C 91.214844 133.601562 92.203125 132.09375 93.910156 129.542969 L 90.976562 129.542969 C 90.976562 129.835938 90.980469 130.335938 90.992188 131.046875 C 91.003906 131.691406 91.011719 132.195312 91.003906 132.558594 C 91 133.109375 90.980469 133.609375 90.949219 134.0625 Z M 90.949219 134.0625 "/>
</g>
</svg>

<svg xmlns="http://www.w3.org/2000/svg" width="99" height="140"><path d="M9.298 719.743h215.404c4.93 0 8.92 4.005 8.92 8.938v314.362c0 4.934-3.99 8.938-8.92 8.938H9.298c-4.93 0-8.92-4.004-8.92-8.938V728.681c0-4.933 3.99-8.938 8.92-8.938Zm0 0" style="fill-rule:nonzero;fill:#fff;fill-opacity:1;stroke-width:.755906;stroke-linecap:butt;stroke-linejoin:miter;stroke:gray;stroke-opacity:1;stroke-miterlimit:4" transform="matrix(.42308 0 0 .42042 0 -302.435)"/><path d="M7.273 25.79a9.65 9.65 0 0 0-1.43-2.212 16.55 16.55 0 0 0-1.187-1.21c-.324-.305-.652-.606-.914-.962a2.267 2.267 0 0 1-.398-.8c-.13-.532.011-1.098.273-1.575a2.64 2.64 0 0 1 .594-.734c.363-.305.832-.485 1.3-.445.426.035.829.253 1.141.55.274.266.489.594.625.953.141-.359.356-.687.63-.953.312-.297.714-.515 1.14-.55.469-.04.937.14 1.3.445.243.203.438.457.594.734.262.477.403 1.043.274 1.574-.07.29-.219.56-.399.801-.261.356-.59.657-.914.961-.41.387-.816.781-1.187 1.211a9.65 9.65 0 0 0-1.43 2.211M91.715 114.21a9.65 9.65 0 0 1-1.43 2.212c-.37.43-.777.824-1.187 1.21-.325.305-.653.606-.914.962-.18.242-.329.511-.399.8-.129.532.012 1.098.274 1.575.156.277.351.531.593.734.364.305.832.484 1.301.445.426-.035.828-.253 1.14-.55.274-.266.489-.594.63-.953.136.359.351.687.625.953.312.297.715.515 1.14.55.469.04.938-.14 1.301-.445a2.64 2.64 0 0 0 .594-.734c.262-.477.402-1.043.273-1.574a2.267 2.267 0 0 0-.398-.801c-.262-.356-.59-.656-.914-.961a16.55 16.55 0 0 1-1.188-1.211 9.65 9.65 0 0 1-1.43-2.211M24.793 39.82a29.097 29.097 0 0 0-4.297-6.629c-1.11-1.289-2.328-2.476-3.566-3.64-.965-.91-1.95-1.813-2.739-2.883-.535-.723-.98-1.527-1.191-2.402-.383-1.586.035-3.29.824-4.715.461-.832 1.051-1.602 1.781-2.211 1.082-.906 2.493-1.45 3.895-1.332 1.281.11 2.484.762 3.418 1.656a7.778 7.778 0 0 1 1.887 2.86 7.778 7.778 0 0 1 1.886-2.86c.938-.894 2.137-1.547 3.422-1.656 1.399-.117 2.809.426 3.89 1.332.731.61 1.321 1.379 1.782 2.21.79 1.427 1.207 3.13.824 4.716-.21.875-.656 1.68-1.191 2.402-.79 1.07-1.773 1.973-2.738 2.883-1.239 1.164-2.457 2.351-3.567 3.64a28.95 28.95 0 0 0-4.293 6.63M74.18 39.82a28.95 28.95 0 0 0-4.293-6.629c-1.11-1.289-2.328-2.476-3.567-3.64-.965-.91-1.949-1.813-2.738-2.883-.535-.723-.98-1.527-1.191-2.402-.383-1.586.035-3.29.824-4.715.46-.832 1.05-1.602 1.781-2.211 1.082-.906 2.492-1.45 3.89-1.332 1.286.11 2.485.762 3.423 1.656a7.778 7.778 0 0 1 1.886 2.86 7.778 7.778 0 0 1 1.887-2.86c.934-.894 2.137-1.547 3.418-1.656 1.402-.117 2.813.426 3.895 1.332.73.61 1.32 1.379 1.78 2.21.79 1.427 1.208 3.13.825 4.716-.21.875-.656 1.68-1.191 2.402-.79 1.07-1.774 1.973-2.739 2.883-1.238 1.164-2.457 2.351-3.566 3.64a29.097 29.097 0 0 0-4.297 6.63M24.793 100.18a29.097 29.097 0 0 1-4.297 6.629c-1.11 1.289-2.328 2.476-3.566 3.64-.965.91-1.95 1.813-2.739 2.883-.535.723-.98 1.527-1.191 2.402-.383 1.586.035 3.29.824 4.715.461.832 1.051 1.602 1.781 2.211 1.082.906 2.493 1.45 3.895 1.332 1.281-.11 2.484-.762 3.418-1.656a7.778 7.778 0 0 0 1.887-2.86 7.778 7.778 0 0 0 1.886 2.86c.938.894 2.137 1.547 3.422 1.656 1.399.117 2.809-.426 3.89-1.332.731-.61 1.321-1.379 1.782-2.21.79-1.427 1.207-3.13.824-4.716-.21-.875-.656-1.68-1.191-2.402-.79-1.07-1.773-1.973-2.738-2.883-1.239-1.164-2.457-2.351-3.567-3.64a28.95 28.95 0 0 1-4.293-6.63M74.18 100.18a28.95 28.95 0 0 1-4.293 6.629c-1.11 1.289-2.328 2.476-3.567 3.64-.965.91-1.949 1.813-2.738 2.883-.535.723-.98 1.527-1.191 2.402-.383 1.586.035 3.29.824 4.715.46.832 1.05 1.602 1.781 2.211 1.082.906 2.492 1.45 3.89 1.332 1.286-.11 2.485-.762 3.423-1.656a7.778 7.778 0 0 0 1.886-2.86 7.778 7.778 0 0 0 1.887 2.86c.934.894 2.137 1.547 3.418 1.656 1.402.117 2.813-.426 3.895-1.332.73-.61 1.32-1.379 1.78-2.21.79-1.427 1.208-3.13.825-4.716-.21-.875-.656-1.68-1.191-2.402-.79-1.07-1.774-1.973-2.739-2.883-1.238-1.164-2.457-2.351-3.566-3.64a29.097 29.097 0 0 1-4.297-6.63M11.262 14.777c0 .118-.02.23-.059.34a.51.51 0 0 1-.277.082H6.242c-.36 0-.539-.207-.539-.62 0-.067.004-.18.016-.349.008-.164.015-.289.015-.378 0-.192.036-.317.11-.372.05-.039.172-.058.355-.058h1.824v-1.27H3.93c-.422 0-.633-.226-.633-.672 0-.078.008-.214.02-.421.015-.207.023-.375.023-.496 0-.184.094-.418.285-.7L7.84 3.582c.133-.195.297-.297.496-.297H9.3c.226 0 .344.145.344.43v6.742c.171 0 .37-.004.597-.016.227-.011.375-.02.438-.02.261 0 .425.079.488.227.062.141.094.5.094 1.075 0 .101-.008.183-.02.238-.031.125-.144.191-.336.191H9.645v1.27c.18 0 .382-.004.609-.016.23-.011.375-.015.434-.015.277 0 .445.078.5.238.05.133.074.516.074 1.148ZM8.05 5.937c-.266.461-1.254 1.97-2.961 4.52h2.933c0-.293-.003-.793-.015-1.504-.012-.644-.02-1.148-.012-1.512a24.4 24.4 0 0 1 .055-1.503ZM87.738 125.223c0-.118.02-.23.059-.34a.51.51 0 0 1 .277-.082h4.684c.36 0 .539.207.539.62 0 .067-.004.18-.016.349-.008.164-.015.289-.015.378 0 .192-.036.317-.11.372-.05.039-.172.058-.355.058h-1.824v1.27h4.093c.422 0 .633.226.633.672 0 .078-.008.214-.02.421a6.998 6.998 0 0 0-.023.496c0 .184-.094.418-.285.7l-4.215 6.281c-.133.195-.297.297-.496.297H89.7c-.226 0-.344-.145-.344-.43v-6.742c-.171 0-.37.004-.597.016-.227.011-.375.02-.438.02-.261 0-.425-.079-.488-.227-.062-.141-.094-.5-.094-1.075 0-.101.008-.183.02-.238.031-.125.144-.191.336-.191h1.261v-1.27c-.18 0-.382.004-.609.016-.23.011-.375.015-.433.015-.278 0-.446-.078-.5-.238-.051-.133-.075-.516-.075-1.148Zm3.211 8.84c.266-.461 1.254-1.97 2.961-4.52h-2.933c0 .293.003.793.015 1.504.012.644.02 1.148.012 1.512a24.4 24.4 0 0 1-.055 1.504Zm0 0" style="stroke:none;fill-rule:nonzero;fill:red;fill-opacity:1"/></svg>
